X: 1
T: Mynydd Yr Heliwr
M: 6/8
L: 1/8
R: jig
K: Ador
a3|e3 a3 |ged edB| c3 ABc|fag fed|a3 e3| a3 ged|edB c3|ace dBG|A2 A:|ABA c2 d|e3 ABc|BAG Ace|a3 ged|edB c3|ace dBG|A3 A3:|
